X:59
T:Teetotaler's, The
T:Temperance, The
M:4/4
L:1/8
R:reel
K:Gmaj
|:G2 GF GABc|dBeB dBAc|BEED EFGA |BGAF GFED|
G2 GF GABc|dBeB dBAc|BEED EFGA |BGAF G4:|
|:Beed e2ef| geaf gfed| AddA d6/2e| f2af gfed|
Beed e2ef|geaf gfed|BEED EFGA|BGAF G4:|
